MauiDApp/Resources/Images/logo.svg

<svg width="140" height="38" viewBox="0 0 140 38" fill="none" xmlns="http://www.w3.org/2000/svg">
<path d="M10.3102 29.3027C8.31289 29.3027 6.54604 28.8482 5.00964 27.9392C3.47324 27.0173 2.26973 25.7562 1.39911 24.1558C0.528482 22.5554 0.0931695 20.7501 0.0931695 18.74C0.0931695 16.7171 0.528482 14.9182 1.39911 13.3434C2.26973 11.7686 3.47324 10.5331 5.00964 9.63684C6.54604 8.74061 8.31289 8.29249 10.3102 8.29249C12.3075 8.29249 14.0744 8.74061 15.6108 9.63684C17.1472 10.5331 18.3507 11.7686 19.2213 13.3434C20.0919 14.9182 20.5273 16.7171 20.5273 18.74C20.5273 20.7501 20.0919 22.5554 19.2213 24.1558C18.3507 25.7562 17.1472 27.0173 15.6108 27.9392C14.0744 28.8482 12.3075 29.3027 10.3102 29.3027ZM10.3102 27.1326C11.8466 27.1326 13.1974 26.7741 14.3625 26.0571C15.5404 25.3401 16.4622 24.3478 17.128 23.0803C17.7937 21.8128 18.1266 20.366 18.1266 18.74C18.1266 17.1012 17.7937 15.6608 17.128 14.4189C16.4622 13.177 15.5404 12.2103 14.3625 11.5189C13.1974 10.8147 11.8466 10.4627 10.3102 10.4627C8.78662 10.4627 7.43587 10.8147 6.25796 11.5189C5.08006 12.2103 4.15822 13.177 3.49245 14.4189C2.82668 15.6608 2.49379 17.1012 2.49379 18.74C2.49379 20.366 2.82668 21.8128 3.49245 23.0803C4.15822 24.3478 5.08006 25.3401 6.25796 26.0571C7.43587 26.7741 8.78662 27.1326 10.3102 27.1326ZM23.2469 37.3496V8.56136H25.6283V37.3496H23.2469ZM32.6573 29.3219C31.0953 29.3219 29.6486 28.9442 28.317 28.1888C26.9855 27.4334 25.91 26.4092 25.0906 25.116C24.284 23.8229 23.8807 22.3697 23.8807 20.7565C23.8807 20.7181 23.8807 20.6861 23.8807 20.6605C23.8807 20.6349 23.8807 20.6093 23.8807 20.5837L25.6283 20.5453C25.6283 20.5709 25.6283 20.5965 25.6283 20.6221C25.6283 20.6477 25.6283 20.6733 25.6283 20.6989C25.6283 21.8512 25.942 22.9139 26.5694 23.8869C27.1967 24.86 28.0161 25.6346 29.0276 26.2107C30.0519 26.7869 31.1594 27.0749 32.3501 27.0749C34.3218 27.0749 35.9414 26.3772 37.2089 24.9816C38.4893 23.5732 39.1294 21.4991 39.1294 18.7592C39.1294 16.0065 38.4893 13.9323 37.2089 12.5368C35.9414 11.1412 34.3218 10.4434 32.3501 10.4434C31.1594 10.4434 30.0519 10.7315 29.0276 11.3077C28.0161 11.8838 27.1967 12.652 26.5694 13.6123C25.942 14.5725 25.6283 15.6352 25.6283 16.8003L23.8807 16.7427C23.8807 15.1295 24.284 13.6827 25.0906 12.4024C25.91 11.122 26.9855 10.117 28.317 9.38717C29.6486 8.64458 31.0953 8.27329 32.6573 8.27329C34.309 8.27329 35.807 8.68299 37.1513 9.5024C38.4957 10.309 39.5647 11.4933 40.3585 13.0553C41.1651 14.6173 41.5684 16.5186 41.5684 18.7592C41.5684 21.0254 41.1715 22.9459 40.3777 24.5207C39.5967 26.0955 38.5277 27.2926 37.1705 28.112C35.8262 28.9186 34.3218 29.3219 32.6573 29.3219ZM44.7394 19.7579V17.6261H61.2557L60.7948 18.2791C60.7948 18.2023 60.7948 18.1382 60.7948 18.087C60.7948 18.023 60.7948 17.959 60.7948 17.895C60.7948 16.5762 60.5131 15.3471 59.9498 14.2076C59.3864 13.0681 58.567 12.1527 57.4915 11.4613C56.4289 10.7699 55.1293 10.4242 53.5929 10.4242C52.0309 10.4242 50.6546 10.7827 49.4639 11.4997C48.2731 12.2039 47.3449 13.1834 46.6791 14.4381C46.0134 15.68 45.6805 17.1268 45.6805 18.7784C45.6805 20.4428 46.007 21.9088 46.6599 23.1763C47.3257 24.4311 48.2539 25.4105 49.4446 26.1147C50.6354 26.8061 52.0245 27.1518 53.6121 27.1518C54.7772 27.1518 55.7887 27.0109 56.6465 26.7293C57.5171 26.4348 58.2341 26.0507 58.7975 25.577C59.3736 25.1032 59.8089 24.6039 60.1034 24.079C60.4107 23.5412 60.5899 23.0355 60.6411 22.5618H63.0034C62.9521 23.3172 62.7089 24.0918 62.2736 24.8856C61.8511 25.6666 61.2429 26.3964 60.4491 27.0749C59.6681 27.7535 58.695 28.3041 57.5299 28.7266C56.3776 29.1363 55.0461 29.3411 53.5353 29.3411C51.5636 29.3411 49.8095 28.893 48.2731 27.9968C46.7496 27.1006 45.546 25.865 44.6626 24.2902C43.792 22.7026 43.3567 20.8781 43.3567 18.8168C43.3567 16.7427 43.7984 14.9182 44.6818 13.3434C45.5652 11.7558 46.7752 10.5139 48.3116 9.61763C49.848 8.7214 51.5956 8.27329 53.5545 8.27329C55.5518 8.27329 57.2803 8.7278 58.7398 9.63684C60.1994 10.5459 61.3261 11.7814 62.1199 13.3434C62.9137 14.8926 63.3106 16.6338 63.3106 18.5671C63.3106 18.7336 63.3042 18.9448 63.2914 19.2009C63.2914 19.457 63.285 19.6426 63.2722 19.7579H44.7394ZM80.6954 28.957V18.8168C80.6954 18.1894 80.6954 17.6901 80.6954 17.3188C80.6954 16.9475 80.6954 16.5826 80.6954 16.2241C80.6954 15.0846 80.4905 14.0924 80.0808 13.2474C79.6839 12.3896 79.0694 11.7238 78.2372 11.2501C77.4049 10.7635 76.3359 10.5203 75.0299 10.5203C73.8776 10.5203 72.7957 10.8083 71.7843 11.3845C70.7728 11.9478 69.9534 12.716 69.326 13.6891C68.7115 14.6621 68.4042 15.7568 68.4042 16.9731L66.9638 16.4354C66.9638 14.8862 67.3607 13.497 68.1545 12.2679C68.9612 11.0388 70.011 10.0657 71.3042 9.34876C72.6101 8.63178 73.9929 8.27329 75.4524 8.27329C77.0016 8.27329 78.346 8.56776 79.4855 9.15672C80.625 9.73286 81.502 10.5715 82.1166 11.6726C82.7439 12.7608 83.0576 14.086 83.0576 15.648C83.0576 16.1857 83.0576 16.7619 83.0576 17.3764C83.0576 17.991 83.0576 18.5479 83.0576 19.0473V28.957H80.6954ZM66.0228 28.957V8.56136H68.4042V28.957H66.0228Z" fill="#222222"/>
<path fill-rule="evenodd" clip-rule="evenodd" d="M131.185 22.7545C131.424 24.2082 133.321 24.9876 134.575 23.4728C135.515 22.3365 137.198 22.1774 138.334 23.1175C139.47 24.0575 139.63 25.7407 138.689 26.877C134.289 32.1957 126.126 29.3361 125.848 22.6288C125.837 22.5337 125.832 22.4398 125.832 22.3476L125.844 8.4679C125.844 7.08604 127.04 5.96582 128.514 5.96582C129.989 5.96582 131.185 7.08605 131.185 8.46791L131.185 22.7545Z" fill="url(#paint0_linear_3466_2095)"/>
<path fill-rule="evenodd" clip-rule="evenodd" d="M101.288 7.97184C102.565 8.70921 103.003 10.3423 102.265 11.6195L92.8508 27.9258C92.1134 29.2029 90.4803 29.6405 89.2032 28.9031C87.926 28.1658 87.4884 26.5327 88.2258 25.2555L97.6402 8.94922C98.3776 7.67206 100.011 7.23447 101.288 7.97184Z" fill="url(#paint1_linear_3466_2095)"/>
<path fill-rule="evenodd" clip-rule="evenodd" d="M115.735 29.4004C114.26 29.4004 113.065 28.2049 113.065 26.7301L113.065 12.5149C113.065 11.0402 114.26 9.84469 115.735 9.84469C117.21 9.84469 118.405 11.0402 118.405 12.5149L118.405 26.7301C118.405 28.2049 117.21 29.4004 115.735 29.4004Z" fill="url(#paint2_linear_3466_2095)"/>
<path fill-rule="evenodd" clip-rule="evenodd" d="M117.975 18.767L116.993 18.787L113.062 18.7606C113.098 17.7576 113.699 15.8914 114.154 15.018C114.63 14.1051 115.307 13.1655 116.163 12.3593C117.885 10.7377 120.619 9.45277 123.798 10.6446C125.063 11.1192 125.705 12.53 125.23 13.7958C124.756 15.0616 123.345 15.703 122.079 15.2285C121.187 14.894 120.359 15.1322 119.519 15.9233C119.094 16.3235 118.741 16.6639 118.495 17.2808C118.376 17.8518 118.402 18.7603 118.402 18.7603L117.975 18.767Z" fill="url(#paint3_linear_3466_2095)"/>
<path fill-rule="evenodd" clip-rule="evenodd" d="M125.832 13.0779L125.832 10.8164L134.619 10.8165C135.619 10.8165 136.96 11.7854 136.96 13.1372C137.079 14.4341 136.017 15.712 134.619 15.712H125.844L125.832 13.0779Z" fill="url(#paint4_linear_3466_2095)"/>
<g style="mix-blend-mode:overlay" opacity="0.2">
<path d="M125.844 15.7344H131.165L131.165 18.0493H125.844V15.7344Z" fill="url(#paint5_linear_3466_2095)"/>
</g>
<path fill-rule="evenodd" clip-rule="evenodd" d="M97.4789 9.28706C97.6938 8.75192 98.0829 8.28218 98.621 7.97147C99.8982 7.2341 101.531 7.67169 102.269 8.94885L111.683 25.2551C112.42 26.5323 111.983 28.1654 110.706 28.9028C109.429 29.6401 107.795 29.2025 107.058 27.9254L99.9212 15.564L99.96 15.6637C98.544 12.8502 96.3577 12.5504 95.4417 12.7521L97.4679 9.25893L97.4789 9.28706Z" fill="url(#paint6_linear_3466_2095)"/>
<defs>
<linearGradient id="paint0_linear_3466_2095" x1="125.832" y1="5.96582" x2="144.197" y2="10.7142" gradientUnits="userSpaceOnUse">
<stop stop-color="#9D0AFC"/>
<stop offset="1" stop-color="#0359FF"/>
</linearGradient>
<linearGradient id="paint1_linear_3466_2095" x1="99.2647" y1="10.7" x2="103.585" y2="15.8913" gradientUnits="userSpaceOnUse">
<stop stop-color="#00DFBA"/>
<stop offset="1" stop-color="#048AFE"/>
</linearGradient>
<linearGradient id="paint2_linear_3466_2095" x1="115.814" y1="10.5589" x2="115.814" y2="31.0734" gradientUnits="userSpaceOnUse">
<stop stop-color="#5900EB"/>
<stop offset="1" stop-color="#E367EE"/>
</linearGradient>
<linearGradient id="paint3_linear_3466_2095" x1="115.389" y1="18.8124" x2="126.269" y2="11.522" gradientUnits="userSpaceOnUse">
<stop stop-color="#9129EC"/>
<stop offset="1" stop-color="#9F03FF"/>
</linearGradient>
<linearGradient id="paint4_linear_3466_2095" x1="131.673" y1="12.077" x2="137.877" y2="18.5678" gradientUnits="userSpaceOnUse">
<stop stop-color="#930FFC"/>
<stop offset="0.865143" stop-color="#004BFB"/>
</linearGradient>
<linearGradient id="paint5_linear_3466_2095" x1="128.504" y1="15.7769" x2="128.504" y2="17.7865" gradientUnits="userSpaceOnUse">
<stop/>
<stop offset="1" stop-opacity="0"/>
</linearGradient>
<linearGradient id="paint6_linear_3466_2095" x1="94.8343" y1="7.81207" x2="120.867" y2="14.3281" gradientUnits="userSpaceOnUse">
<stop stop-color="#0056FE"/>
<stop offset="0.815625" stop-color="#D159ED"/>
</linearGradient>
</defs>
</svg>

<?xml version="1.0" encoding="UTF-8"?>
<svg fill="none" viewBox="0 0 140 38" xmlns="http://www.w3.org/2000/svg">
	<path d="m10.31 29.303c-1.9973 0-3.7642-0.4545-5.3006-1.3635-1.5364-0.9219-2.7399-2.183-3.6105-3.7834-0.87063-1.6004-1.3059-3.4057-1.3059-5.4158 0-2.0229 0.43531-3.8218 1.3059-5.3966 0.87062-1.5748 2.0741-2.8103 3.6105-3.7066 1.5364-0.89623 3.3032-1.3444 5.3006-1.3444 1.9973 0 3.7642 0.44812 5.3006 1.3444 1.5364 0.89626 2.7399 2.1318 3.6105 3.7066s1.306 3.3737 1.306 5.3966c0 2.0101-0.4354 3.8154-1.306 5.4158s-2.0741 2.8615-3.6105 3.7834c-1.5364 0.909-3.3033 1.3635-5.3006 1.3635zm0-2.1701c1.5364 0 2.8872-0.3585 4.0523-1.0755 1.1779-0.717 2.0997-1.7093 2.7655-2.9768 0.6657-1.2675 0.9986-2.7143 0.9986-4.3403 0-1.6388-0.3329-3.0792-0.9986-4.3211-0.6658-1.2419-1.5876-2.2086-2.7655-2.9-1.1651-0.7042-2.5159-1.0562-4.0523-1.0562-1.5236 0-2.8743 0.352-4.0522 1.0562-1.1779 0.6914-2.0997 1.6581-2.7655 2.9s-0.99866 2.6823-0.99866 4.3211c0 1.626 0.33289 3.0728 0.99866 4.3403s1.5876 2.2598 2.7655 2.9768c1.1779 0.717 2.5287 1.0755 4.0522 1.0755zm12.937 10.217v-28.788h2.3814v28.788h-2.3814zm9.4104-8.0277c-1.562 0-3.0087-0.3777-4.3403-1.1331-1.3315-0.7554-2.407-1.7796-3.2264-3.0728-0.8066-1.2931-1.2099-2.7463-1.2099-4.3595v-0.096-0.0768l1.7476-0.0384v0.0768 0.0768c0 1.1523 0.3137 2.215 0.9411 3.188 0.6273 0.9731 1.4467 1.7477 2.4582 2.3238 1.0243 0.5762 2.1318 0.8642 3.3225 0.8642 1.9717 0 3.5913-0.6977 4.8588-2.0933 1.2804-1.4084 1.9205-3.4825 1.9205-6.2224 0-2.7527-0.6401-4.8269-1.9205-6.2224-1.2675-1.3956-2.8871-2.0934-4.8588-2.0934-1.1907 0-2.2982 0.2881-3.3225 0.8643-1.0115 0.5761-1.8309 1.3443-2.4582 2.3046-0.6274 0.9602-0.9411 2.0229-0.9411 3.188l-1.7476-0.0576c0-1.6132 0.4033-3.06 1.2099-4.3403 0.8194-1.2804 1.8949-2.2854 3.2264-3.0152 1.3316-0.74259 2.7783-1.1139 4.3403-1.1139 1.6517 0 3.1497 0.4097 4.494 1.2291 1.3444 0.8066 2.4134 1.9909 3.2072 3.5529 0.8066 1.562 1.2099 3.4633 1.2099 5.7039 0 2.2662-0.3969 4.1867-1.1907 5.7615-0.781 1.5748-1.85 2.7719-3.2072 3.5913-1.3443 0.8066-2.8487 1.2099-4.5132 1.2099zm12.082-9.564v-2.1318h16.516l-0.4609 0.653v-0.1921-0.192c0-1.3188-0.2817-2.5479-0.845-3.6874-0.5634-1.1395-1.3828-2.0549-2.4583-2.7463-1.0626-0.6914-2.3622-1.0371-3.8986-1.0371-1.562 0-2.9383 0.3585-4.129 1.0755-1.1908 0.7042-2.119 1.6837-2.7848 2.9384-0.6657 1.2419-0.9986 2.6887-0.9986 4.3403 0 1.6644 0.3265 3.1304 0.9794 4.3979 0.6658 1.2548 1.594 2.2342 2.7847 2.9384 1.1908 0.6914 2.5799 1.0371 4.1675 1.0371 1.1651 0 2.1766-0.1409 3.0344-0.4225 0.8706-0.2945 1.5876-0.6786 2.151-1.1523 0.5761-0.4738 1.0114-0.9731 1.3059-1.498 0.3073-0.5378 0.4865-1.0435 0.5377-1.5172h2.3623c-0.0513 0.7554-0.2945 1.53-0.7298 2.3238-0.4225 0.781-1.0307 1.5108-1.8245 2.1893-0.781 0.6786-1.7541 1.2292-2.9192 1.6517-1.1523 0.4097-2.4838 0.6145-3.9946 0.6145-1.9717 0-3.7258-0.4481-5.2622-1.3443-1.5235-0.8962-2.7271-2.1318-3.6105-3.7066-0.8706-1.5876-1.3059-3.4121-1.3059-5.4734 0-2.0741 0.4417-3.8986 1.3251-5.4734 0.8834-1.5876 2.0934-2.8295 3.6298-3.7258 1.5364-0.89623 3.284-1.3443 5.2429-1.3443 1.9973 0 3.7258 0.45451 5.1853 1.3636 1.4596 0.90906 2.5863 2.1446 3.3801 3.7066 0.7938 1.5492 1.1907 3.2904 1.1907 5.2237 0 0.1665-0.0064 0.3777-0.0192 0.6338 0 0.2561-0.0064 0.4417-0.0192 0.557h-18.533zm35.956 9.1991v-10.14-1.498-1.0947c0-1.1395-0.2049-2.1317-0.6146-2.9767-0.3969-0.8578-1.0114-1.5236-1.8436-1.9973-0.8323-0.4866-1.9013-0.7298-3.2073-0.7298-1.1523 0-2.2342 0.288-3.2456 0.8642-1.0115 0.5633-1.8309 1.3315-2.4583 2.3046-0.6145 0.973-0.9218 2.0677-0.9218 3.284l-1.4404-0.5377c0-1.5492 0.3969-2.9384 1.1907-4.1675 0.8067-1.2291 1.8565-2.2022 3.1497-2.9191 1.3059-0.71698 2.6887-1.0755 4.1482-1.0755 1.5492 0 2.8936 0.29447 4.0331 0.88343 1.1395 0.57614 2.0165 1.4148 2.6311 2.5159 0.6273 1.0882 0.941 2.4134 0.941 3.9754v1.7284 1.6709 9.9097h-2.3622zm-14.673 0v-20.396h2.3814v20.396h-2.3814z" fill="#222"/>
	<path d="m131.18 22.754c0.239 1.4537 2.136 2.2331 3.39 0.7183 0.94-1.1363 2.623-1.2954 3.759-0.3553 1.136 0.94 1.296 2.6232 0.355 3.7595-4.4 5.3187-12.563 2.4591-12.841-4.2482-0.011-0.0951-0.016-0.189-0.016-0.2812l0.012-13.88c0-1.3819 1.196-2.5021 2.67-2.5021 1.475 0 2.671 1.1202 2.671 2.5021v14.287z" clip-rule="evenodd" fill="url(#g)" fill-rule="evenodd"/>
	<path d="m101.29 7.9718c1.277 0.73737 1.715 2.3705 0.977 3.6477l-9.4142 16.306c-0.7374 1.2771-2.3705 1.7147-3.6476 0.9773-1.2772-0.7373-1.7148-2.3704-0.9774-3.6476l9.4144-16.306c0.7374-1.2772 2.3708-1.7148 3.6478-0.97738z" clip-rule="evenodd" fill="url(#f)" fill-rule="evenodd"/>
	<path d="m115.74 29.4c-1.475 0-2.67-1.1955-2.67-2.6703v-14.215c0-1.4747 1.195-2.6702 2.67-2.6702s2.67 1.1955 2.67 2.6702v14.215c0 1.4748-1.195 2.6703-2.67 2.6703z" clip-rule="evenodd" fill="url(#e)" fill-rule="evenodd"/>
	<path d="m117.98 18.767-0.982 0.02-3.931-0.0264c0.036-1.003 0.637-2.8692 1.092-3.7426 0.476-0.9129 1.153-1.8525 2.009-2.6587 1.722-1.6216 4.456-2.9065 7.635-1.7147 1.265 0.4746 1.907 1.8854 1.432 3.1512-0.474 1.2658-1.885 1.9072-3.151 1.4327-0.892-0.3345-1.72-0.0963-2.56 0.6948-0.425 0.4002-0.778 0.7406-1.024 1.3575-0.119 0.571-0.093 1.4795-0.093 1.4795l-0.427 0.0067z" clip-rule="evenodd" fill="url(#d)" fill-rule="evenodd"/>
	<path d="m125.83 13.078v-2.2615l8.787 1e-4c1 0 2.341 0.9689 2.341 2.3207 0.119 1.2969-0.943 2.5748-2.341 2.5748h-8.775l-0.012-2.6341z" clip-rule="evenodd" fill="url(#c)" fill-rule="evenodd"/>
	<g opacity=".2" style="mix-blend-mode:overlay">
		<path d="m125.84 15.734h5.321v2.3149h-5.321v-2.3149z" fill="url(#b)"/>
	</g>
	<path d="m97.479 9.2871c0.2149-0.53514 0.604-1.0049 1.1421-1.3156 1.2772-0.73737 2.91-0.29978 3.648 0.97738l9.414 16.306c0.737 1.2772 0.3 2.9103-0.977 3.6477-1.277 0.7373-2.911 0.2997-3.648-0.9774l-7.1368-12.361 0.0388 0.0997c-1.416-2.8135-3.6023-3.1133-4.5183-2.9116l2.0262-3.4932 0.011 0.02813z" clip-rule="evenodd" fill="url(#a)" fill-rule="evenodd"/>
	<defs>
		<linearGradient id="g" x1="125.83" x2="144.2" y1="5.9658" y2="10.714" gradientUnits="userSpaceOnUse">
			<stop stop-color="#9D0AFC" offset="0"/>
			<stop stop-color="#0359FF" offset="1"/>
		</linearGradient>
		<linearGradient id="f" x1="99.265" x2="103.58" y1="10.7" y2="15.891" gradientUnits="userSpaceOnUse">
			<stop stop-color="#00DFBA" offset="0"/>
			<stop stop-color="#048AFE" offset="1"/>
		</linearGradient>
		<linearGradient id="e" x1="115.81" x2="115.81" y1="10.559" y2="31.073" gradientUnits="userSpaceOnUse">
			<stop stop-color="#5900EB" offset="0"/>
			<stop stop-color="#E367EE" offset="1"/>
		</linearGradient>
		<linearGradient id="d" x1="115.39" x2="126.27" y1="18.812" y2="11.522" gradientUnits="userSpaceOnUse">
			<stop stop-color="#9129EC" offset="0"/>
			<stop stop-color="#9F03FF" offset="1"/>
		</linearGradient>
		<linearGradient id="c" x1="131.67" x2="137.88" y1="12.077" y2="18.568" gradientUnits="userSpaceOnUse">
			<stop stop-color="#930FFC" offset="0"/>
			<stop stop-color="#004BFB" offset=".86514"/>
		</linearGradient>
		<linearGradient id="b" x1="128.5" x2="128.5" y1="15.777" y2="17.786" gradientUnits="userSpaceOnUse">
			<stop offset="0"/>
			<stop stop-opacity="0" offset="1"/>
		</linearGradient>
		<linearGradient id="a" x1="94.834" x2="120.87" y1="7.8121" y2="14.328" gradientUnits="userSpaceOnUse">
			<stop stop-color="#0056FE" offset="0"/>
			<stop stop-color="#D159ED" offset=".81562"/>
		</linearGradient>
	</defs>
</svg>
